X:1
T: Flirtation
P:Kerrs Collection p.29 No. 3
R:Reel
Q: 232
K:Am
M:4/4
L:1/8
AB cd e2 e2|e^d ef ed cB|AB cd e2 a2|ed eB A4|
AB cd e2 e2|e^d ef ed cB|AB cd e^d ea|ed cB A4|
|:A2 a2 A2 a2|ge de g4|A2 a2 A2 a2|ge de g4|
A2 a2 A2 a2|ge de e2 cd|ec dB AB cd|ed cB A4:|
AB cd e2 e2|e^d ef ed cB|AB cd e2 a2|ed eB A4|
AB cd e2 e2|e^d ef ed cB|AB cd e^d ea|ed cB A4||
